resources/light/bug.svg

<svg width="16" height="16" viewBox="0 0 16 16" fill="none" xmlns="http://www.w3.org/2000/svg">
<path fill-rule="evenodd" clip-rule="evenodd" d="M10.8777 4.5V3.91833C10.8777 2.30658 9.57117 1 7.95942 1C6.34767 1 5.04108 2.30658 5.04108 3.91833V4.5H4.2086L2.54552 2.8285L1.95241 3.41862L3.56328 5.03764L3.54471 5.08683C3.22237 5.94055 3.04108 6.90159 3.04108 7.91833C3.04108 8.11403 3.0478 8.30766 3.06094 8.49886L3.06394 8.5425H1.00024V9.37916H3.16906L3.17518 9.41265C3.34742 10.3545 3.67875 11.2152 4.12942 11.9442L4.16342 11.9992L2.2002 13.9624L2.79181 14.554L4.66351 12.6823L4.72099 12.748C5.58905 13.7401 6.72275 14.3367 7.95942 14.3367C9.17721 14.3367 10.2951 13.7582 11.1579 12.7932L11.2156 12.7287L13.1254 14.6481L13.7185 14.058L11.722 12.0515L11.7568 11.9964C12.2241 11.2564 12.5673 10.3771 12.7436 9.41265L12.7498 9.37916H14.9202V8.5425H12.8549L12.8579 8.49886C12.871 8.30766 12.8777 8.11403 12.8777 7.91833C12.8777 6.88815 12.6916 5.91515 12.3613 5.05303L12.3423 5.00354L13.9121 3.43371L13.3205 2.8421L11.6626 4.5H10.8777ZM5.87775 4.5V3.91833C5.87775 2.76866 6.80974 1.83667 7.95942 1.83667C9.10909 1.83667 10.0411 2.76866 10.0411 3.91833V4.5H5.87775ZM11.5742 5.33667L11.5941 5.38957C11.8775 6.14269 12.0411 7.00011 12.0411 7.91833C12.0411 9.52826 11.5381 10.9522 10.7671 11.9546C9.99668 12.9561 8.99609 13.5 7.95942 13.5C6.92274 13.5 5.92215 12.9561 5.15177 11.9546C4.38072 10.9522 3.87775 9.52826 3.87775 7.91833C3.87775 7.00011 4.04134 6.1427 4.32475 5.38957L4.34466 5.33667H11.5742Z" fill="#424242"/>
</svg>

<svg width="16" height="16" fill="none" xmlns="http://www.w3.org/2000/svg"><path fill-rule="evenodd" clip-rule="evenodd" d="M10.878 4.5v-.582a2.918 2.918 0 10-5.837 0V4.5H4.21L2.546 2.829l-.594.59 1.611 1.619-.018.049a8.03 8.03 0 00-.504 2.831c0 .196.007.39.02.58l.003.045H1v.836h2.17l.005.034c.172.941.504 1.802.954 2.531l.034.055L2.2 13.962l.592.592 1.872-1.872.057.066c.868.992 2.002 1.589 3.238 1.589 1.218 0 2.336-.579 3.199-1.544l.058-.064 1.91 1.92.593-.591-1.997-2.006.035-.056c.467-.74.81-1.619.987-2.583l.006-.034h2.17v-.836h-2.065l.003-.044c.013-.191.02-.385.02-.58 0-1.03-.186-2.004-.517-2.866l-.019-.05 1.57-1.57-.592-.59L11.663 4.5h-.785zm-5 0v-.582a2.082 2.082 0 014.163 0V4.5H5.878zm5.696.837l.02.053c.284.753.447 1.61.447 2.528 0 1.61-.503 3.034-1.274 4.037-.77 1.001-1.77 1.545-2.808 1.545-1.036 0-2.037-.544-2.807-1.545-.771-1.003-1.274-2.427-1.274-4.037 0-.918.163-1.775.447-2.528l.02-.053h7.23z" fill="#424242"/></svg>
